svg/database-plus.svg

<?xml version="1.0" encoding="UTF-8"?>
<svg xmlns="http://www.w3.org/2000/svg" xmlns:xlink="http://www.w3.org/1999/xlink" width="29.767" height="32" viewBox="0 0 29.767 32">
<path fill="none" stroke-width="1.488" stroke-linecap="round" stroke-linejoin="round" stroke="rgb(61.176471%, 63.921569%, 68.627451%)" stroke-opacity="1" stroke-miterlimit="4" d="M 0.746094 7.070312 L 0.746094 21.953125 C 0.746094 25.242188 6.074219 27.90625 12.652344 27.90625 C 13.679688 27.90625 14.675781 27.84375 15.628906 27.71875 M 0.746094 7.070312 C 0.746094 10.359375 6.074219 13.023438 12.652344 13.023438 C 19.226562 13.023438 24.558594 10.359375 24.558594 7.070312 M 0.746094 7.070312 C 0.746094 3.78125 6.074219 1.117188 12.652344 1.117188 C 19.226562 1.117188 24.558594 3.78125 24.558594 7.070312 M 24.558594 7.070312 L 24.558594 17.488281 M 24.558594 14.511719 C 24.558594 17.800781 19.226562 20.464844 12.652344 20.464844 C 6.074219 20.464844 0.746094 17.800781 0.746094 14.511719 M 24.558594 21.953125 L 24.558594 26.417969 M 24.558594 26.417969 L 24.558594 30.882812 M 24.558594 26.417969 L 29.023438 26.417969 M 24.558594 26.417969 L 20.09375 26.417969 "/>
</svg>

<svg role="img" viewBox="0 0 29.767 32" xmlns="http://www.w3.org/2000/svg"><path d="M.746 7.07v14.883c0 3.29 5.328 5.953 11.906 5.953 1.028 0 2.024-.062 2.977-.187M.746 7.07c0 3.29 5.328 5.953 11.906 5.953 6.575 0 11.907-2.664 11.907-5.953m-23.813 0c0-3.289 5.328-5.953 11.906-5.953 6.575 0 11.907 2.664 11.907 5.953m0 0v10.418m0-2.976c0 3.289-5.332 5.953-11.907 5.953C6.074 20.465.746 17.8.746 14.512m23.813 7.441v4.465m0 0v4.465m0-4.465h4.464m-4.464 0h-4.465" fill="none" stroke="rgb(61.176473%, 63.921571%, 68.627453%)" stroke-linecap="round" stroke-linejoin="round" stroke-width="1.488"/></svg>
